build/flags/Mexico.svg

<svg xmlns="http://www.w3.org/2000/svg" fill="none" viewBox="0 0 28 28" focusable="false"><defs><filter id="Mexico_svg__a"><feColorMatrix values="0 0 0 0 1 0 0 0 0 1 0 0 0 0 1 0 0 0 1 0"/></filter></defs><mask id="Mexico_svg__b" width="28" height="20" x="0" y="4" maskUnits="userSpaceOnUse"><g filter="url(#Mexico_svg__a)"><rect width="28" height="20" y="4" fill="#FFF" rx="3"/><rect width="27.5" height="19.5" x=".25" y="4.25" stroke="#F5F5F5" stroke-width=".5" rx="2.75"/></g></mask><path fill="none" d="M0 0H28V28H0z"/><rect width="28" height="20" y="4" fill="#FFF" rx="3"/><rect width="27.5" height="19.5" x=".25" y="4.25" stroke="#D6D8DD" stroke-width=".5" rx="2.75"/><g mask="url(#Mexico_svg__b)"><path fill="#E3283E" d="M18.667 4H28V24H18.667z"/><path d="M18.667 4H28V24H18.667z"/><path fill="#128A60" fill-rule="evenodd" d="M0 24L9.33333 24L9.33333 4L0 4L0 24Z"/><path d="M9.33333 24L9.33333 4L0 4L0 24L9.33333 24Z"/><path fill="none" d="M12.6636 15.6415C11.8682 15.1799 11.3333 14.3191 11.3333 13.3333L12.6636 15.6415ZM16.6667 13.3333C16.6667 14.2778 16.1756 15.1077 15.4349 15.5814L16.6667 13.3333Z"/><path stroke="#8C9157" stroke-linecap="round" stroke-width="1.333" d="M12.6636 15.6415C11.8682 15.1799 11.3333 14.3191 11.3333 13.3333L12.6636 15.6415ZM16.6667 13.3333C16.6667 14.2778 16.1756 15.1077 15.4349 15.5814L16.6667 13.3333Z"/><path fill="#C59262" fill-rule="evenodd" d="M14 14.6667C14.7364 14.6667 15.3333 13.7713 15.3333 12.6667C15.3333 11.5621 14.7364 10.6667 14 10.6667C13.2636 10.6667 12.6667 11.5621 12.6667 12.6667C12.6667 13.7713 13.2636 14.6667 14 14.6667Z"/><path d="M15.3333 12.6667C15.3333 11.5621 14.7364 10.6667 14 10.6667C13.2636 10.6667 12.6667 11.5621 12.6667 12.6667C12.6667 13.7713 13.2636 14.6667 14 14.6667C14.7364 14.6667 15.3333 13.7713 15.3333 12.6667Z"/></g></svg>

<svg xmlns="http://www.w3.org/2000/svg" fill="none" viewBox="0 0 28 28" focusable="false"><path fill="none" d="M0 0h28v28H0z"/><rect width="28" height="20" y="4" fill="#FFF" rx="3"/><rect width="27.5" height="19.5" x=".25" y="4.25" stroke="#D6D8DD" stroke-width=".5" rx="3"/><mask id="Mexico_svg__a" width="28" height="20" x="0" y="4" mask-type="alpha" maskUnits="userSpaceOnUse"><rect width="28" height="20" y="4" fill="#FFF" rx="3"/><rect width="27.5" height="19.5" x=".25" y="4.25" stroke="#F5F5F5" stroke-width=".5" rx="3"/></mask><g mask="url(#Mexico_svg__a)"><path fill="#E3283E" d="M18.667 4H28v20h-9.333z"/><path d="M18.667 4H28v20h-9.333z"/></g><g mask="url(#Mexico_svg__a)"><path fill="#128A60" fill-rule="evenodd" d="M0 24h9.33V4H0z"/><path d="M9.33 24V4H0v20z"/></g><g mask="url(#Mexico_svg__a)"><mask id="Mexico_svg__b" fill="#fff"><path fill-rule="evenodd" d="M12.664 15.641a2.67 2.67 0 0 1-1.33-2.308zm4.003-2.308c0 .945-.491 1.775-1.232 2.249z" clip-rule="evenodd"/></mask><path fill="none" d="M12.664 15.641a2.67 2.67 0 0 1-1.33-2.308zm4.003-2.308c0 .945-.491 1.775-1.232 2.249z" clip-rule="evenodd" mask="url(#Mexico_svg__b)"/><path fill="#8C9157" d="M12.329 16.218q-.759-.44-1.203-1.196-.46-.78-.46-1.689v-2.492l2.575 4.468zm.67-1.153-.335.576-.578.333-1.33-2.308.577-.333H12q0 .546.275 1.013.267.454.723.719m4.334-1.732q0 .87-.423 1.627-.41.731-1.116 1.183l-.944-.882 1.232-2.248zm-1.333 0h.667l.584.32-1.232 2.249-.584-.32-.36-.562q.426-.272.672-.712.253-.452.253-.975"/></g><g mask="url(#Mexico_svg__a)"><path fill="#C59262" fill-rule="evenodd" d="M14 14.66c.73 0 1.33-.89 1.33-2 0-1.1-.6-2-1.33-2-.74 0-1.34.9-1.34 2 0 1.11.6 2 1.34 2"/><path d="M15.33 12.66c0-1.1-.6-2-1.33-2-.74 0-1.34.9-1.34 2 0 1.11.6 2 1.34 2 .73 0 1.33-.89 1.33-2"/></g></svg>
